svg/u1f9b2.svg

<svg viewBox="0 0 128 128" xmlns="http://www.w3.org/2000/svg" xmlns:xlink="http://www.w3.org/1999/xlink">
  <defs>
    <rect id="d" height="120" width="120" x="4" y="4"/>
  </defs>
  <clipPath id="a">
    <use xlink:href="#d"/>
  </clipPath>
  <g clip-path="url(#a)">
    <path d="m20.9 112.77c-8.45 0-15.32-7.37-15.32-16.42s6.87-16.42 15.32-16.42h86.2c8.45 0 15.32 7.37 15.32 16.42s-6.87 16.42-15.32 16.42h-86.2z" fill="#E59600"/>
    <path d="m107.1 81.51c7.58 0 13.74 6.66 13.74 14.85s-6.17 14.85-13.74 14.85h-86.2c-7.58 0-13.74-6.66-13.74-14.85s6.17-14.85 13.74-14.85h86.2m0-3.16h-86.2c-9.29 0-16.9 8.1-16.9 18s7.6 18 16.9 18h86.2c9.29 0 16.9-8.1 16.9-18s-7.6-18-16.9-18z" fill="#CC8600"/>
  </g>
  <g clip-path="url(#a)">
    <linearGradient id="c" gradientUnits="userSpaceOnUse" x1="64" x2="64" y1="146.44" y2="19.02">
      <stop offset="0" stop-color="#FFB300"/>
      <stop offset=".102" stop-color="#FFB809"/>
      <stop offset=".3707" stop-color="#FFC21A"/>
      <stop offset=".6592" stop-color="#FFC825"/>
      <stop offset="1" stop-color="#FFCA28"/>
    </linearGradient>
    <path d="m64 147.5c-13.08 0-25.94-6.07-35.26-16.65-10.49-11.91-16.04-28.39-16.04-47.66 0-43.98 16.78-65.35 51.29-65.35 18.02 0 30.9 5.56 39.36 16.99 8.03 10.83 11.93 26.65 11.93 48.37 0 19.27-5.55 35.75-16.04 47.66-9.3 10.57-22.16 16.64-35.24 16.64z" fill="url(#c)"/>
    <path d="m64 19.42c17.48 0 29.95 5.35 38.1 16.35 7.71 10.41 11.62 26.36 11.62 47.43 0 18.88-5.41 35-15.64 46.61-9.02 10.24-21.44 16.12-34.07 16.12s-25.05-5.87-34.07-16.12c-10.23-11.62-15.64-27.74-15.64-46.61 0-20.82 3.91-36.69 11.63-47.18 8.19-11.18 20.65-16.6 38.07-16.6m0-3.16c-37.86 0-52.87 25.37-52.87 66.93 0 42.02 26.19 65.88 52.87 65.88s52.87-23.87 52.87-65.88c0-42.24-15.01-66.93-52.87-66.93z" fill="#EDA600"/>
  </g>
  <g clip-path="url(#a)">
    <defs>
      <path id="b" d="m64 4.03h-0.02s-0.01 0-0.02 0c-45.43 0.24-36.12 52.14-36.12 52.14s5.1 8.99 5.1 8.81c-0.03-1.41 0.46-6.89 0.46-6.89l-2.68-2.92s3.89-25.44 6.79-24.91c4.45 0.81 26.54 2 26.57 2 7.83 0 14.92-0.36 19.37-1.17 2.9-0.53 9.64 1.7 10.68 4.45 1.33 3.54 3.13 19.71 3.13 19.71l-2.68 2.83s0.49 5.51 0.46 6.89c0 0.18 5.1-8.81 5.1-8.81s9.3-51.89-36.14-52.13z"/>
    </defs>
    <clipPath>
      <use xlink:href="#b"/>
    </clipPath>
  </g>
  <path d="m128 0h-4c-0.55 0-1 0.45-1 1s0.45 1 1 1h4v-2zm-12 0h-4c-0.55 0-1 0.45-1 1s0.45 1 1 1h4c0.55 0 1-0.45 1-1s-0.45-1-1-1zm-12 0h-4c-0.55 0-1 0.45-1 1s0.45 1 1 1h4c0.55 0 1-0.45 1-1s-0.45-1-1-1zm-12 0h-4c-0.55 0-1 0.45-1 1s0.45 1 1 1h4c0.55 0 1-0.45 1-1s-0.45-1-1-1zm-12 0h-4c-0.55 0-1 0.45-1 1s0.45 1 1 1h4c0.55 0 1-0.45 1-1s-0.45-1-1-1zm-12 0h-4c-0.55 0-1 0.45-1 1s0.45 1 1 1h4c0.55 0 1-0.45 1-1s-0.45-1-1-1zm-12 0h-4c-0.55 0-1 0.45-1 1s0.45 1 1 1h4c0.55 0 1-0.45 1-1s-0.45-1-1-1zm-12 0h-4c-0.55 0-1 0.45-1 1s0.45 1 1 1h4c0.55 0 1-0.45 1-1s-0.45-1-1-1zm-12 0h-4c-0.55 0-1 0.45-1 1s0.45 1 1 1h4c0.55 0 1-0.45 1-1s-0.45-1-1-1zm-12 0h-4c-0.55 0-1 0.45-1 1s0.45 1 1 1h4c0.55 0 1-0.45 1-1s-0.45-1-1-1zm-12 0h-4c-0.55 0-1 0.45-1 1s0.45 1 1 1h4c0.55 0 1-0.45 1-1s-0.45-1-1-1zm-7 3c-0.55 0-1 0.45-1 1v4c0 0.55 0.45 1 1 1s1-0.45 1-1v-4c0-0.55-0.45-1-1-1zm0 12c-0.55 0-1 0.45-1 1v4c0 0.55 0.45 1 1 1s1-0.45 1-1v-4c0-0.55-0.45-1-1-1zm0 12c-0.55 0-1 0.45-1 1v4c0 0.55 0.45 1 1 1s1-0.45 1-1v-4c0-0.55-0.45-1-1-1zm0 12c-0.55 0-1 0.45-1 1v4c0 0.55 0.45 1 1 1s1-0.45 1-1v-4c0-0.55-0.45-1-1-1zm0 12c-0.55 0-1 0.45-1 1v4c0 0.55 0.45 1 1 1s1-0.45 1-1v-4c0-0.55-0.45-1-1-1zm0 12c-0.55 0-1 0.45-1 1v4c0 0.55 0.45 1 1 1s1-0.45 1-1v-4c0-0.55-0.45-1-1-1zm0 12c-0.55 0-1 0.45-1 1v4c0 0.55 0.45 1 1 1s1-0.45 1-1v-4c0-0.55-0.45-1-1-1zm0 12c-0.55 0-1 0.45-1 1v4c0 0.55 0.45 1 1 1s1-0.45 1-1v-4c0-0.55-0.45-1-1-1zm0 12c-0.55 0-1 0.45-1 1v4c0 0.55 0.45 1 1 1s1-0.45 1-1v-4c0-0.55-0.45-1-1-1zm0 12c-0.55 0-1 0.45-1 1v4c0 0.55 0.45 1 1 1s1-0.45 1-1v-4c0-0.55-0.45-1-1-1zm0 12c-0.55 0-1 0.45-1 1v4h2v-4c0-0.55-0.45-1-1-1zm11 3h-4c-0.55 0-1 0.45-1 1s0.45 1 1 1h4c0.55 0 1-0.45 1-1s-0.45-1-1-1zm12 0h-4c-0.55 0-1 0.45-1 1s0.45 1 1 1h4c0.55 0 1-0.45 1-1s-0.45-1-1-1zm12 0h-4c-0.55 0-1 0.45-1 1s0.45 1 1 1h4c0.55 0 1-0.45 1-1s-0.45-1-1-1zm12 0h-4c-0.55 0-1 0.45-1 1s0.45 1 1 1h4c0.55 0 1-0.45 1-1s-0.45-1-1-1zm12 0h-4c-0.55 0-1 0.45-1 1s0.45 1 1 1h4c0.55 0 1-0.45 1-1s-0.45-1-1-1zm12 0h-4c-0.55 0-1 0.45-1 1s0.45 1 1 1h4c0.55 0 1-0.45 1-1s-0.45-1-1-1zm12 0h-4c-0.55 0-1 0.45-1 1s0.45 1 1 1h4c0.55 0 1-0.45 1-1s-0.45-1-1-1zm12 0h-4c-0.55 0-1 0.45-1 1s0.45 1 1 1h4c0.55 0 1-0.45 1-1s-0.45-1-1-1zm12 0h-4c-0.55 0-1 0.45-1 1s0.45 1 1 1h4c0.55 0 1-0.45 1-1s-0.45-1-1-1zm12 0h-4c-0.55 0-1 0.45-1 1s0.45 1 1 1h4c0.55 0 1-0.45 1-1s-0.45-1-1-1zm7-3c-0.55 0-1 0.45-1 1v4h2v-4c0-0.55-0.45-1-1-1zm0-12c-0.55 0-1 0.45-1 1v4c0 0.55 0.45 1 1 1s1-0.45 1-1v-4c0-0.55-0.45-1-1-1zm0-12c-0.55 0-1 0.45-1 1v4c0 0.55 0.45 1 1 1s1-0.45 1-1v-4c0-0.55-0.45-1-1-1zm0-12c-0.55 0-1 0.45-1 1v4c0 0.55 0.45 1 1 1s1-0.45 1-1v-4c0-0.55-0.45-1-1-1zm0-12c-0.55 0-1 0.45-1 1v4c0 0.55 0.45 1 1 1s1-0.45 1-1v-4c0-0.55-0.45-1-1-1zm0-12c-0.55 0-1 0.45-1 1v4c0 0.55 0.45 1 1 1s1-0.45 1-1v-4c0-0.55-0.45-1-1-1zm0-12c-0.55 0-1 0.45-1 1v4c0 0.55 0.45 1 1 1s1-0.45 1-1v-4c0-0.55-0.45-1-1-1zm0-12c-0.55 0-1 0.45-1 1v4c0 0.55 0.45 1 1 1s1-0.45 1-1v-4c0-0.55-0.45-1-1-1zm0-12c-0.55 0-1 0.45-1 1v4c0 0.55 0.45 1 1 1s1-0.45 1-1v-4c0-0.55-0.45-1-1-1zm0-12c-0.55 0-1 0.45-1 1v4c0 0.55 0.45 1 1 1s1-0.45 1-1v-4c0-0.55-0.45-1-1-1zm0-12c-0.55 0-1 0.45-1 1v4c0 0.55 0.45 1 1 1s1-0.45 1-1v-4c0-0.55-0.45-1-1-1z"/>
</svg>

<svg viewBox="0 0 128 128" xmlns="http://www.w3.org/2000/svg">
  <defs>
    <linearGradient id="c" gradientUnits="userSpaceOnUse" x1="64" x2="64" y1="146.44" y2="19.02">
      <stop offset="0" stop-color="#FFB300"/>
      <stop offset=".102" stop-color="#FFB809"/>
      <stop offset=".3707" stop-color="#FFC21A"/>
      <stop offset=".6592" stop-color="#FFC825"/>
      <stop offset="1" stop-color="#FFCA28"/>
    </linearGradient>
  </defs>
  <path d="M20.9,112.77 C12.45,112.77 5.58,105.4 5.58,96.35 C5.58,87.3 12.45,79.93 20.9,79.93 L107.1,79.93 C115.55,79.93 122.42,87.3 122.42,96.35 C122.42,105.4 115.55,112.77 107.1,112.77 Z" fill="#E59600"/>
  <path d="M107.1,78.35 C116.4,78.35 124,86.45 124,96.35 C124,106.25 116.39,114.35 107.1,114.35 L20.9,114.35 C11.6,114.35 4,106.25 4,96.35 C4,86.45 11.61,78.35 20.9,78.35 Z M107.1,81.51 L20.9,81.51 C13.33,81.51 7.16,88.17 7.16,96.36 C7.16,104.55 13.32,111.21 20.9,111.21 L107.1,111.21 C114.67,111.21 120.84,104.55 120.84,96.36 C120.84,88.17 114.68,81.51 107.1,81.51 Z" fill="#CC8600"/>
  <path d="M104.418,124 L23.569,124 C16.435,112.93 12.7,98.999 12.7,83.19 C12.7,39.21 29.48,17.84 63.99,17.84 C82.01,17.84 94.89,23.4 103.35,34.83 C111.38,45.66 115.28,61.48 115.28,83.2 C115.28,99.004 111.547,112.931 104.418,124 Z" fill="url(#c)"/>
  <path d="M64,19.42 C46.58,19.42 34.12,24.84 25.93,36.02 C18.21,46.51 14.3,62.38 14.3,83.2 C14.3,99.102 18.142,113.051 25.473,124 L21.723,124 C15.182,113.438 11.13,99.719 11.13,83.19 C11.13,41.63 26.14,16.26 64,16.26 C101.86,16.26 116.87,40.95 116.87,83.19 C116.87,99.717 112.817,113.437 106.274,124 L102.55,124 C109.879,113.058 113.72,99.109 113.72,83.2 C113.72,62.13 109.81,46.18 102.1,35.77 C93.95,24.77 81.48,19.42 64,19.42 Z" fill="#EDA600"/>
  <path d="M128,0 L124,0 C123.45,0 123,0.45 123,1 C123,1.55 123.45,2 124,2 L128,2 L128,0 Z M116,0 L112,0 C111.45,0 111,0.45 111,1 C111,1.55 111.45,2 112,2 L116,2 C116.55,2 117,1.55 117,1 C117,0.45 116.55,0 116,0 Z M104,0 L100,0 C99.45,0 99,0.45 99,1 C99,1.55 99.45,2 100,2 L104,2 C104.55,2 105,1.55 105,1 C105,0.45 104.55,0 104,0 Z M92,0 L88,0 C87.45,0 87,0.45 87,1 C87,1.55 87.45,2 88,2 L92,2 C92.55,2 93,1.55 93,1 C93,0.45 92.55,0 92,0 Z M80,0 L76,0 C75.45,0 75,0.45 75,1 C75,1.55 75.45,2 76,2 L80,2 C80.55,2 81,1.55 81,1 C81,0.45 80.55,0 80,0 Z M68,0 L64,0 C63.45,0 63,0.45 63,1 C63,1.55 63.45,2 64,2 L68,2 C68.55,2 69,1.55 69,1 C69,0.45 68.55,0 68,0 Z M56,0 L52,0 C51.45,0 51,0.45 51,1 C51,1.55 51.45,2 52,2 L56,2 C56.55,2 57,1.55 57,1 C57,0.45 56.55,0 56,0 Z M44,0 L40,0 C39.45,0 39,0.45 39,1 C39,1.55 39.45,2 40,2 L44,2 C44.55,2 45,1.55 45,1 C45,0.45 44.55,0 44,0 Z M32,0 L28,0 C27.45,0 27,0.45 27,1 C27,1.55 27.45,2 28,2 L32,2 C32.55,2 33,1.55 33,1 C33,0.45 32.55,0 32,0 Z M20,0 L16,0 C15.45,0 15,0.45 15,1 C15,1.55 15.45,2 16,2 L20,2 C20.55,2 21,1.55 21,1 C21,0.45 20.55,0 20,0 Z M8,0 L4,0 C3.45,0 3,0.45 3,1 C3,1.55 3.45,2 4,2 L8,2 C8.55,2 9,1.55 9,1 C9,0.45 8.55,0 8,0 Z M1,3 C0.45,3 0,3.45 0,4 L0,8 C0,8.55 0.45,9 1,9 C1.55,9 2,8.55 2,8 L2,4 C2,3.45 1.55,3 1,3 Z M1,15 C0.45,15 0,15.45 0,16 L0,20 C0,20.55 0.45,21 1,21 C1.55,21 2,20.55 2,20 L2,16 C2,15.45 1.55,15 1,15 Z M1,27 C0.45,27 0,27.45 0,28 L0,32 C0,32.55 0.45,33 1,33 C1.55,33 2,32.55 2,32 L2,28 C2,27.45 1.55,27 1,27 Z M1,39 C0.45,39 0,39.45 0,40 L0,44 C0,44.55 0.45,45 1,45 C1.55,45 2,44.55 2,44 L2,40 C2,39.45 1.55,39 1,39 Z M1,51 C0.45,51 0,51.45 0,52 L0,56 C0,56.55 0.45,57 1,57 C1.55,57 2,56.55 2,56 L2,52 C2,51.45 1.55,51 1,51 Z M1,63 C0.45,63 0,63.45 0,64 L0,68 C0,68.55 0.45,69 1,69 C1.55,69 2,68.55 2,68 L2,64 C2,63.45 1.55,63 1,63 Z M1,75 C0.45,75 0,75.45 0,76 L0,80 C0,80.55 0.45,81 1,81 C1.55,81 2,80.55 2,80 L2,76 C2,75.45 1.55,75 1,75 Z M1,87 C0.45,87 0,87.45 0,88 L0,92 C0,92.55 0.45,93 1,93 C1.55,93 2,92.55 2,92 L2,88 C2,87.45 1.55,87 1,87 Z M1,99 C0.45,99 0,99.45 0,100 L0,104 C0,104.55 0.45,105 1,105 C1.55,105 2,104.55 2,104 L2,100 C2,99.45 1.55,99 1,99 Z M1,111 C0.45,111 0,111.45 0,112 L0,116 C0,116.55 0.45,117 1,117 C1.55,117 2,116.55 2,116 L2,112 C2,111.45 1.55,111 1,111 Z M1,123 C0.45,123 0,123.45 0,124 L0,128 L2,128 L2,124 C2,123.45 1.55,123 1,123 Z M12,126 L8,126 C7.45,126 7,126.45 7,127 C7,127.55 7.45,128 8,128 L12,128 C12.55,128 13,127.55 13,127 C13,126.45 12.55,126 12,126 Z M24,126 L20,126 C19.45,126 19,126.45 19,127 C19,127.55 19.45,128 20,128 L24,128 C24.55,128 25,127.55 25,127 C25,126.45 24.55,126 24,126 Z M36,126 L32,126 C31.45,126 31,126.45 31,127 C31,127.55 31.45,128 32,128 L36,128 C36.55,128 37,127.55 37,127 C37,126.45 36.55,126 36,126 Z M48,126 L44,126 C43.45,126 43,126.45 43,127 C43,127.55 43.45,128 44,128 L48,128 C48.55,128 49,127.55 49,127 C49,126.45 48.55,126 48,126 Z M60,126 L56,126 C55.45,126 55,126.45 55,127 C55,127.55 55.45,128 56,128 L60,128 C60.55,128 61,127.55 61,127 C61,126.45 60.55,126 60,126 Z M72,126 L68,126 C67.45,126 67,126.45 67,127 C67,127.55 67.45,128 68,128 L72,128 C72.55,128 73,127.55 73,127 C73,126.45 72.55,126 72,126 Z M84,126 L80,126 C79.45,126 79,126.45 79,127 C79,127.55 79.45,128 80,128 L84,128 C84.55,128 85,127.55 85,127 C85,126.45 84.55,126 84,126 Z M96,126 L92,126 C91.45,126 91,126.45 91,127 C91,127.55 91.45,128 92,128 L96,128 C96.55,128 97,127.55 97,127 C97,126.45 96.55,126 96,126 Z M108,126 L104,126 C103.45,126 103,126.45 103,127 C103,127.55 103.45,128 104,128 L108,128 C108.55,128 109,127.55 109,127 C109,126.45 108.55,126 108,126 Z M120,126 L116,126 C115.45,126 115,126.45 115,127 C115,127.55 115.45,128 116,128 L120,128 C120.55,128 121,127.55 121,127 C121,126.45 120.55,126 120,126 Z M127,123 C126.45,123 126,123.45 126,124 L126,128 L128,128 L128,124 C128,123.45 127.55,123 127,123 Z M127,111 C126.45,111 126,111.45 126,112 L126,116 C126,116.55 126.45,117 127,117 C127.55,117 128,116.55 128,116 L128,112 C128,111.45 127.55,111 127,111 Z M127,99 C126.45,99 126,99.45 126,100 L126,104 C126,104.55 126.45,105 127,105 C127.55,105 128,104.55 128,104 L128,100 C128,99.45 127.55,99 127,99 Z M127,87 C126.45,87 126,87.45 126,88 L126,92 C126,92.55 126.45,93 127,93 C127.55,93 128,92.55 128,92 L128,88 C128,87.45 127.55,87 127,87 Z M127,75 C126.45,75 126,75.45 126,76 L126,80 C126,80.55 126.45,81 127,81 C127.55,81 128,80.55 128,80 L128,76 C128,75.45 127.55,75 127,75 Z M127,63 C126.45,63 126,63.45 126,64 L126,68 C126,68.55 126.45,69 127,69 C127.55,69 128,68.55 128,68 L128,64 C128,63.45 127.55,63 127,63 Z M127,51 C126.45,51 126,51.45 126,52 L126,56 C126,56.55 126.45,57 127,57 C127.55,57 128,56.55 128,56 L128,52 C128,51.45 127.55,51 127,51 Z M127,39 C126.45,39 126,39.45 126,40 L126,44 C126,44.55 126.45,45 127,45 C127.55,45 128,44.55 128,44 L128,40 C128,39.45 127.55,39 127,39 Z M127,27 C126.45,27 126,27.45 126,28 L126,32 C126,32.55 126.45,33 127,33 C127.55,33 128,32.55 128,32 L128,28 C128,27.45 127.55,27 127,27 Z M127,15 C126.45,15 126,15.45 126,16 L126,20 C126,20.55 126.45,21 127,21 C127.55,21 128,20.55 128,20 L128,16 C128,15.45 127.55,15 127,15 Z M127,3 C126.45,3 126,3.45 126,4 L126,8 C126,8.55 126.45,9 127,9 C127.55,9 128,8.55 128,8 L128,4 C128,3.45 127.55,3 127,3 Z"/>
</svg>
